X:8051
T:When the Snow and The Frost Are All Over
O:england
B:Joyce, P. W.; "Old Irish Folk Music and Songs"
R:jig/song air
L:1/8
M:6/8
K:C
"Playful: not too fast."\
D/E/|FGA GAE|DEG A2 B/c/|dcA GAE|D3 C2 D/E/|
FGA GAE|DEG A2 B/c/|dcA GAE|D3 D2||G|
ABc d2 e|dAB c2 e|dcA GAE|D3 C2 D/E/|
FGA GAE|DEG A2 B/c/|dcA GAE|D3 D2||
